;FLAVOR:Marlin
;TIME:11699
;Filament used: 5.29535m
;Layer height: 0.12
;MINX:31.008
;MINY:49.315
;MINZ:0.12
;MAXX:152.995
;MAXY:175.689
;MAXZ:3.68
;Generated with Cura_SteamEngine 5.0.0
M140 S60
M105
M190 S60
M104 S200
M105
M109 S200
M82 ;absolute extrusion mode
; LONGER Start G-code
G21 ; metric values
G90 ; absolute positioning
M82 ; set extruder to absolute mode
M107 ; start with the fan off
G92 E0 ; Reset Extruder
G28 ; Home all axes
G1 Z2.0 F3000 ; Move Z Axis up little to prevent scratching of Heat Bed
G1 X0.1 Y20 Z0.3 F5000.0 ; Move to start position
G1 X0.1 Y200.0 Z0.3 F1500.0 E15 ; Draw the first line
G1 X0.4 Y200.0 Z0.3 F5000.0 ; Move to side a little
G1 X0.4 Y20 Z0.3 F1500.0 E30 ; Draw the second line
G92 E0 ; Reset Extruder
G1 Z2.0 F3000 ; Move Z Axis up little to prevent scratching of Heat Bed
G1 X5 Y20 Z0.3 F5000.0 ; Move over to prevent blob squish

G92 E0
G92 E0
G1 F2700 E-5
;LAYER_COUNT:29
;LAYER:0
M107
G1 F300 Z0.32
G0 F6000 X52.849 Y63.538 Z0.32
G1 F300 Z0.32
G0 F6000 X46.535 Y69.648
;TYPE:SKIRT
G1 F300 Z0.12
G1 F2700 E0
G1 F1200 X47.446 Y68.652 E0.02694
G1 X48.458 Y67.595 E0.05614
G1 X49.533 Y66.528 E0.08637
G1 X50.613 Y65.504 E0.11607
G1 X51.741 Y64.489 E0.14635
G1 X52.849 Y63.538 E0.17549
G1 X54.056 Y62.555 E0.20655
G1 X55.179 Y61.683 E0.23492
G1 X56.364 Y60.809 E0.26431
G1 X57.605 Y59.937 E0.29458
G1 X58.84 Y59.115 E0.32418
G1 X60.037 Y58.36 E0.35242
G1 X61.29 Y57.611 E0.38156
G1 X62.574 Y56.883 E0.41101
G1 X63.889 Y56.179 E0.44078
G1 X65.221 Y55.508 E0.47054
G1 X66.592 Y54.859 E0.50081
G1 X67.921 Y54.27 E0.52982
G1 X69.306 Y53.695 E0.55975
G1 X70.7 Y53.156 E0.58957
G1 X72.155 Y52.633 E0.62043
G1 X73.516 Y52.183 E0.64904
G1 X74.98 Y51.738 E0.67957
G1 X76.402 Y51.343 E0.70902
G1 X77.791 Y50.993 E0.73761
G1 X79.118 Y50.692 E0.76476
G1 X80.658 Y50.38 E0.79612
G1 X82.092 Y50.126 E0.82518
G1 X83.638 Y49.891 E0.85639
G1 X84.989 Y49.719 E0.88357
G1 X86.364 Y49.576 E0.91116
G1 X87.769 Y49.462 E0.93929
G1 X89.319 Y49.374 E0.97027
G1 X90.878 Y49.325 E1.00139
G1 X92.106 Y49.315 E1.0259
G1 X93.629 Y49.336 E1.0563
G1 X95.138 Y49.395 E1.08643
G1 X96.601 Y49.489 E1.11569
G1 X98.169 Y49.628 E1.1471
G1 X99.643 Y49.796 E1.17671
G1 X101.242 Y50.019 E1.20893
G1 X102.701 Y50.261 E1.23844
G1 X104.246 Y50.557 E1.26983
G1 X105.722 Y50.878 E1.29998
G1 X107.211 Y51.242 E1.33057
G1 X108.659 Y51.634 E1.3605
G1 X110.11 Y52.065 E1.39071
G1 X111.718 Y52.59 E1.42447
G1 X113.249 Y53.136 E1.45691
G1 X114.567 Y53.641 E1.48507
G1 X115.928 Y54.203 E1.51446
G1 X117.207 Y54.767 E1.54235
G1 X118.513 Y55.378 E1.57113
G1 X119.669 Y55.951 E1.59687
G1 X121.001 Y56.651 E1.6269
G1 X122.431 Y57.449 E1.65958
G1 X123.724 Y58.214 E1.68956
G1 X125.055 Y59.049 E1.72092
G1 X126.277 Y59.858 E1.75016
G1 X127.496 Y60.707 E1.77981
G1 X128.649 Y61.552 E1.80834
G1 X129.738 Y62.391 E1.83577
G1 X130.814 Y63.258 E1.86335
G1 X132.023 Y64.282 E1.89496
G1 X133.172 Y65.306 E1.92568
G1 X134.245 Y66.313 E1.95504
G1 X135.259 Y67.309 E1.98341
G1 X136.112 Y68.184 E2.0078
G1 X137.085 Y69.227 E2.03626
G1 X138.116 Y70.39 E2.06728
G1 X139.171 Y71.64 E2.09992
G1 X140.179 Y72.904 E2.13218
G1 X141.095 Y74.114 E2.16247
G1 X142.025 Y75.411 E2.19432
G1 X142.827 Y76.589 E2.22276
G1 X143.729 Y77.99 E2.25601
G1 X144.49 Y79.243 E2.28526
G1 X145.227 Y80.525 E2.31477
G1 X145.931 Y81.819 E2.34417
G1 X146.62 Y83.164 E2.37433
G1 X147.25 Y84.468 E2.40323
G1 X147.799 Y85.676 E2.42971
G1 X148.361 Y86.989 E2.45821
G1 X148.939 Y88.439 E2.48936
G1 X149.436 Y89.779 E2.51788
G1 X149.87 Y91.034 E2.54438
G1 X150.337 Y92.499 E2.57507
G1 X150.759 Y93.946 E2.60515
G1 X151.154 Y95.435 E2.63589
G1 X151.493 Y96.856 E2.66504
G1 X151.808 Y98.335 E2.69522
G1 X152.084 Y99.806 E2.72509
G1 X152.316 Y101.233 E2.75394
G1 X152.52 Y102.711 E2.78371
G1 X152.673 Y104.04 E2.81041
G1 X152.805 Y105.497 E2.8396
G1 X152.911 Y107.116 E2.87198
G1 X152.97 Y108.528 E2.90019
G1 X152.995 Y109.995 E2.92947
G1 X152.985 Y111.486 E2.95922
G1 X152.939 Y112.929 E2.98803
G1 X152.855 Y114.448 E3.01839
G1 X152.742 Y115.87 E3.04686
G1 X152.585 Y117.38 E3.07715
G1 X152.422 Y118.659 E3.10288
G1 X152.184 Y120.228 E3.13455
G1 X151.912 Y121.754 E3.16549
G1 X151.602 Y123.277 E3.1965
G1 X151.269 Y124.724 E3.22613
G1 X150.893 Y126.188 E3.2563
G1 X150.512 Y127.538 E3.28429
G1 X150.054 Y129.027 E3.31538
G1 X149.647 Y130.243 E3.34097
G1 X149.159 Y131.601 E3.36977
G1 X148.568 Y133.126 E3.40241
G1 X147.999 Y134.489 E3.43188
G1 X147.351 Y135.938 E3.46356
G1 X146.704 Y137.294 E3.49354
G1 X146.013 Y138.651 E3.52393
G1 X145.3 Y139.971 E3.55387
G1 X145.08 Y140.358 E3.56275
G1 X143.848 Y142.596 E3.61373
G1 X142.689 Y144.85 E3.66431
G1 X141.614 Y147.096 E3.714
G1 X140.598 Y149.38 E3.76389
G1 X139.613 Y151.776 E3.81559
G1 X138.737 Y154.093 E3.86502
G1 X137.907 Y156.49 E3.91564
G1 X137.165 Y158.844 E3.9649
G1 X136.461 Y161.323 E4.01632
G1 X135.851 Y163.723 E4.06574
G1 X135.381 Y165.797 E4.10818
G1 X135.118 Y167.01 E4.13295
G1 X134.881 Y167.917 E4.15166
G1 X134.567 Y168.801 E4.17038
G1 X134.179 Y169.655 E4.1891
G1 X133.719 Y170.472 E4.20781
G1 X133.192 Y171.248 E4.22653
G1 X132.6 Y171.976 E4.24525
G1 X131.949 Y172.65 E4.26395
G1 X131.242 Y173.267 E4.28268
G1 X130.486 Y173.822 E4.30139
G1 X129.685 Y174.31 E4.32011
G1 X128.845 Y174.728 E4.33883
G1 X127.973 Y175.072 E4.35754
G1 X127.075 Y175.342 E4.37625
G1 X126.157 Y175.534 E4.39497
G1 X125.226 Y175.646 E4.41368
G1 X124.677 Y175.676 E4.42466
G1 X124.048 Y175.689 E4.43721
G1 X60.667 Y175.687 E5.70205
G1 X59.967 Y175.673 E5.71602
G1 X59.031 Y175.614 E5.73474
G1 X58.103 Y175.476 E5.75346
G1 X57.191 Y175.259 E5.77217
G1 X56.3 Y174.965 E5.79089
G1 X55.438 Y174.597 E5.80959
G1 X54.61 Y174.156 E5.82832
G1 X53.822 Y173.647 E5.84704
G1 X53.081 Y173.072 E5.86575
G1 X52.392 Y172.436 E5.88447
G1 X51.759 Y171.744 E5.90318
G1 X51.188 Y171 E5.9219
G1 X50.681 Y170.211 E5.94061
G1 X50.244 Y169.381 E5.95933
G1 X49.88 Y168.517 E5.97804
G1 X49.59 Y167.625 E5.99676
G1 X49.47 Y167.155 E6.00644
G1 X49.191 Y165.95 E6.03112
G1 X48.58 Y163.463 E6.08223
G1 X47.909 Y161.036 E6.13248
G1 X47.167 Y158.616 E6.18299
G1 X46.363 Y156.241 E6.23303
G1 X45.497 Y153.901 E6.28282
G1 X44.545 Y151.535 E6.33372
G1 X43.545 Y149.24 E6.38368
G1 X42.473 Y146.959 E6.43397
G1 X41.333 Y144.7 E6.48447
G1 X40.129 Y142.474 E6.53497
G1 X38.553 Y139.702 E6.59861
G1 X37.908 Y138.499 E6.62585
G1 X37.212 Y137.118 E6.65671
G1 X36.498 Y135.608 E6.69004
G1 X36.001 Y134.489 E6.71448
G1 X35.417 Y133.086 E6.7448
G1 X34.809 Y131.514 E6.77844
G1 X34.297 Y130.079 E6.80884
G1 X33.832 Y128.666 E6.83853
G1 X33.41 Y127.273 E6.86757
G1 X33.02 Y125.858 E6.89687
G1 X32.645 Y124.36 E6.92768
G1 X32.34 Y123.007 E6.95536
G1 X32.054 Y121.578 E6.98444
G1 X31.797 Y120.112 E7.01415
G1 X31.571 Y118.611 E7.04444
G1 X31.389 Y117.148 E7.07386
G1 X31.243 Y115.697 E7.10296
G1 X31.123 Y114.106 E7.1348
G1 X31.047 Y112.587 E7.16515
G1 X31.009 Y111.069 E7.19545
G1 X31.008 Y109.658 E7.22361
G1 X31.045 Y108.073 E7.25525
G1 X31.112 Y106.679 E7.2831
G1 X31.228 Y105.1 E7.3147
G1 X31.383 Y103.517 E7.34644
G1 X31.56 Y102.094 E7.37506
G1 X31.786 Y100.576 E7.40568
G1 X32.035 Y99.145 E7.43467
G1 X32.345 Y97.595 E7.46621
G1 X32.692 Y96.058 E7.49766
G1 X33.091 Y94.493 E7.52989
G1 X33.512 Y93.001 E7.56083
G1 X33.963 Y91.544 E7.59126
G1 X34.431 Y90.152 E7.62057
G1 X34.906 Y88.842 E7.64838
G1 X35.44 Y87.473 E7.6777
G1 X36.014 Y86.101 E7.70738
G1 X36.592 Y84.805 E7.7357
G1 X37.283 Y83.354 E7.76777
G1 X37.902 Y82.136 E7.79504
G1 X38.672 Y80.704 E7.82748
G1 X39.368 Y79.482 E7.85555
G1 X40.139 Y78.204 E7.88533
G1 X40.941 Y76.944 E7.91514
G1 X41.77 Y75.707 E7.94486
G1 X42.755 Y74.318 E7.97884
G1 X43.653 Y73.123 E8.00867
G1 X44.567 Y71.964 E8.03812
G1 X45.52 Y70.813 E8.06795
G1 X46.535 Y69.648 E8.09878
G1 F2700 E3.09878
G1 F300 Z0.32
G0 F6000 X41.274 Y77.166 Z0.32
G1 F300 Z0.12
G1 F2700 E8.09878
G1 F1200 X42.097 Y75.938 E8.12828
G1 X43.076 Y74.558 E8.16205
G1 X43.967 Y73.37 E8.19168
G1 X44.875 Y72.218 E8.22095
G1 X45.822 Y71.076 E8.25056
G1 X46.831 Y69.918 E8.28121
G1 X47.736 Y68.928 E8.30798
G1 X48.74 Y67.878 E8.33697
G1 X49.808 Y66.817 E8.36701
G1 X50.881 Y65.801 E8.3965
G1 X52.002 Y64.792 E8.4266
G1 X53.102 Y63.848 E8.45553
G1 X54.302 Y62.87 E8.48642
G1 X55.418 Y62.005 E8.5146
G1 X56.594 Y61.135 E8.54379
G1 X57.827 Y60.269 E8.57386
G1 X59.055 Y59.453 E8.60328
G1 X60.242 Y58.703 E8.6313
G1 X61.488 Y57.958 E8.66027
G1 X62.764 Y57.235 E8.68954
G1 X64.07 Y56.536 E8.7191
G1 X65.393 Y55.869 E8.74867
G1 X66.754 Y55.225 E8.77871
G1 X68.075 Y54.639 E8.80755
G1 X69.451 Y54.068 E8.83728
G1 X70.836 Y53.533 E8.86691
G1 X72.282 Y53.013 E8.89758
G1 X73.633 Y52.566 E8.92598
G1 X75.088 Y52.123 E8.95633
G1 X76.501 Y51.731 E8.98559
G1 X77.88 Y51.383 E9.01397
G1 X79.198 Y51.084 E9.04095
G1 X80.729 Y50.774 E9.07212
G1 X82.152 Y50.521 E9.10096
G1 X83.689 Y50.288 E9.13198
G1 X85.032 Y50.117 E9.159
G1 X86.397 Y49.975 E9.18639
G1 X87.793 Y49.861 E9.21434
G1 X89.333 Y49.774 E9.24512
G1 X90.882 Y49.725 E9.27605
G1 X92.11 Y49.715 E9.30056
G1 X93.623 Y49.736 E9.33075
G1 X95.122 Y49.795 E9.36069
G1 X96.575 Y49.888 E9.38974
G1 X98.133 Y50.026 E9.42096
G1 X99.597 Y50.193 E9.45036
G1 X101.185 Y50.415 E9.48236
G1 X102.635 Y50.655 E9.51169
G1 X104.17 Y50.949 E9.54288
G1 X105.636 Y51.268 E9.57282
G1 X107.115 Y51.63 E9.60321
G1 X108.8 Y52.09 E9.63806
G1 X110.247 Y52.527 E9.66823
G1 X111.585 Y52.967 E9.69634
G1 X113.106 Y53.51 E9.72857
G1 X114.415 Y54.012 E9.75654
G1 X115.767 Y54.57 E9.78573
G1 X117.038 Y55.13 E9.81345
G1 X118.336 Y55.737 E9.84204
G1 X119.484 Y56.306 E9.86761
G1 X120.807 Y57 E9.89743
G1 X122.228 Y57.793 E9.9299
G1 X123.512 Y58.554 E9.95969
G1 X124.835 Y59.383 E9.99084
G1 X126.049 Y60.186 E10.01989
G1 X127.26 Y61.031 E10.04936
G1 X128.405 Y61.87 E10.07769
G1 X129.488 Y62.703 E10.10495
G1 X130.557 Y63.564 E10.13235
G1 X131.757 Y64.581 E10.16374
G1 X132.899 Y65.599 E10.19427
G1 X133.965 Y66.599 E10.22343
G1 X134.973 Y67.589 E10.25163
G1 X135.821 Y68.458 E10.27586
G1 X136.786 Y69.493 E10.3041
G1 X137.811 Y70.648 E10.33492
G1 X138.859 Y71.891 E10.36736
G1 X139.861 Y73.146 E10.39941
G1 X140.77 Y74.348 E10.42948
G1 X141.695 Y75.637 E10.46115
G1 X142.491 Y76.806 E10.48937
G1 X143.387 Y78.198 E10.5224
G1 X144.144 Y79.443 E10.55148
G1 X144.876 Y80.717 E10.5808
G1 X145.576 Y82.002 E10.61001
G1 X146.26 Y83.338 E10.63996
G1 X146.886 Y84.634 E10.66868
G1 X147.432 Y85.834 E10.69499
G1 X147.989 Y87.138 E10.72329
G1 X148.564 Y88.579 E10.75425
G1 X149.059 Y89.91 E10.78259
G1 X149.489 Y91.156 E10.80889
G1 X149.954 Y92.612 E10.83939
G1 X150.373 Y94.049 E10.86927
G1 X150.765 Y95.528 E10.8998
G1 X151.102 Y96.94 E10.92877
G1 X151.415 Y98.41 E10.95876
G1 X151.689 Y99.871 E10.98843
G1 X151.92 Y101.288 E11.01708
G1 X152.123 Y102.757 E11.04667
G1 X152.274 Y104.077 E11.07318
G1 X152.406 Y105.525 E11.1022
G1 X152.512 Y107.134 E11.13438
G1 X152.57 Y108.536 E11.16238
G1 X152.595 Y109.994 E11.19148
G1 X152.585 Y111.474 E11.22102
G1 X152.54 Y112.908 E11.24965
G1 X152.457 Y114.417 E11.27981
G1 X152.344 Y115.83 E11.3081
G1 X152.188 Y117.33 E11.33819
G1 X152.026 Y118.6 E11.36374
G1 X151.79 Y120.158 E11.39519
G1 X151.52 Y121.675 E11.42594
G1 X151.212 Y123.188 E11.45675
G1 X150.881 Y124.626 E11.4862
G1 X150.508 Y126.08 E11.51615
G1 X150.13 Y127.421 E11.54396
G1 X149.674 Y128.901 E11.57486
G1 X149.271 Y130.109 E11.60028
G1 X148.786 Y131.457 E11.62886
G1 X148.199 Y132.973 E11.66131
G1 X147.633 Y134.326 E11.69057
G1 X146.99 Y135.766 E11.72205
G1 X146.347 Y137.113 E11.75183
G1 X145.66 Y138.462 E11.78204
G1 X144.952 Y139.773 E11.81178
G1 X143.491 Y142.414 E11.87201
G1 X142.336 Y144.66 E11.92241
G1 X141.244 Y146.942 E11.97289
G1 X140.23 Y149.223 E12.02271
G1 X139.241 Y151.63 E12.07464
G1 X138.361 Y153.957 E12.12429
G1 X137.534 Y156.344 E12.1747
G1 X136.775 Y158.752 E12.22508
G1 X136.086 Y161.177 E12.27539
G1 X135.455 Y163.66 E12.32652
G1 X134.991 Y165.708 E12.36843
G1 X134.727 Y166.925 E12.39328
G1 X134.494 Y167.816 E12.41166
G1 X134.183 Y168.682 E12.43002
G1 X133.799 Y169.519 E12.4484
G1 X133.344 Y170.319 E12.46676
G1 X132.82 Y171.077 E12.48515
G1 X132.233 Y171.786 E12.50352
G1 X131.587 Y172.442 E12.52189
G1 X130.886 Y173.039 E12.54027
G1 X130.137 Y173.573 E12.55862
G1 X129.343 Y174.04 E12.57701
G1 X128.512 Y174.436 E12.59538
G1 X127.65 Y174.759 E12.61375
G1 X126.763 Y175.006 E12.63212
G1 X125.858 Y175.175 E12.65049
G1 X124.666 Y175.276 E12.67437
G1 X124.048 Y175.289 E12.6867
G1 X60.675 Y175.287 E13.95138
G1 X59.975 Y175.273 E13.96535
G1 X59.056 Y175.215 E13.98373
G1 X58.146 Y175.077 E14.0021
G1 X57.251 Y174.86 E14.02047
G1 X56.378 Y174.567 E14.03885
G1 X55.534 Y174.199 E14.05723
G1 X54.725 Y173.76 E14.07559
G1 X53.958 Y173.252 E14.09395
G1 X53.237 Y172.679 E14.11233
G1 X52.569 Y172.045 E14.13071
G1 X51.958 Y171.357 E14.14907
G1 X51.409 Y170.617 E14.16746
G1 X50.927 Y169.833 E14.18583
G1 X50.514 Y169.01 E14.2042
G1 X50.174 Y168.155 E14.22256
G1 X49.86 Y167.065 E14.2452
G1 X49.59 Y165.897 E14.26912
G1 X48.962 Y163.342 E14.32163
G1 X48.291 Y160.917 E14.37184
G1 X47.553 Y158.508 E14.42212
G1 X46.741 Y156.111 E14.47263
G1 X45.868 Y153.749 E14.52288
G1 X44.912 Y151.374 E14.57397
G1 X43.916 Y149.089 E14.62371
G1 X42.834 Y146.788 E14.67446
G1 X41.688 Y144.515 E14.72525
G1 X40.47 Y142.265 E14.77631
G1 X38.905 Y139.512 E14.83951
G1 X38.265 Y138.318 E14.86654
G1 X37.573 Y136.947 E14.89719
G1 X36.863 Y135.445 E14.93034
G1 X36.37 Y134.335 E14.95458
G1 X35.789 Y132.941 E14.98472
G1 X35.185 Y131.378 E15.01816
G1 X34.677 Y129.953 E15.04835
G1 X34.214 Y128.55 E15.07783
G1 X33.795 Y127.166 E15.10669
G1 X33.408 Y125.76 E15.13579
G1 X33.035 Y124.271 E15.16643
G1 X32.732 Y122.928 E15.1939
G1 X32.448 Y121.508 E15.2228
G1 X32.193 Y120.052 E15.2523
G1 X31.968 Y118.561 E15.28239
G1 X31.787 Y117.107 E15.31163
G1 X31.642 Y115.666 E15.34053
G1 X31.523 Y114.085 E15.37217
G1 X31.447 Y112.576 E15.40232
G1 X31.409 Y111.067 E15.43245
G1 X31.408 Y109.667 E15.46038
G1 X31.445 Y108.091 E15.49184
G1 X31.511 Y106.707 E15.51949
G1 X31.626 Y105.138 E15.55089
G1 X31.781 Y103.565 E15.58243
G1 X31.956 Y102.152 E15.61085
G1 X32.181 Y100.644 E15.64127
G1 X32.428 Y99.222 E15.67008
G1 X32.735 Y97.682 E15.70141
G1 X33.08 Y96.156 E15.73263
G1 X33.477 Y94.6 E15.76468
G1 X33.894 Y93.119 E15.79538
G1 X34.343 Y91.671 E15.82564
G1 X34.808 Y90.288 E15.85476
G1 X35.279 Y88.987 E15.88237
G1 X35.81 Y87.627 E15.9115
G1 X36.379 Y86.263 E15.941
G1 X36.954 Y84.976 E15.96913
G1 X37.64 Y83.534 E16.00099
G1 X38.255 Y82.324 E16.02808
G1 X39.019 Y80.901 E16.06031
G1 X39.711 Y79.688 E16.08818
G1 X40.476 Y78.418 E16.11777
G1 X41.274 Y77.166 E16.1474
G1 F2700 E11.1474
G1 F300 Z0.32
G0 F6000 X37.997 Y83.715 Z0.32
G1 F300 Z0.12
G1 F2700 E16.1474
G1 F1200 X38.607 Y82.513 E16.1743
G1 X39.367 Y81.098 E16.20635
G1 X40.054 Y79.894 E16.23401
G1 X40.814 Y78.632 E16.26341
G1 X41.606 Y77.388 E16.29284
G1 X42.424 Y76.168 E16.32215
G1 X43.396 Y74.797 E16.35569
G1 X44.282 Y73.617 E16.38514
G1 X45.184 Y72.473 E16.41421
G1 X46.125 Y71.338 E16.44363
G1 X47.127 Y70.187 E16.47409
G1 X48.026 Y69.204 E16.50067
G1 X49.023 Y68.161 E16.52947
G1 X50.084 Y67.107 E16.55931
G1 X51.15 Y66.098 E16.5886
G1 X52.263 Y65.095 E16.6185
G1 X53.356 Y64.157 E16.64724
G1 X54.547 Y63.186 E16.67791
G1 X55.656 Y62.326 E16.70592
G1 X56.825 Y61.462 E16.73492
G1 X58.049 Y60.602 E16.76478
G1 X59.269 Y59.791 E16.79401
G1 X60.448 Y59.046 E16.82184
G1 X61.686 Y58.306 E16.85063
G1 X62.953 Y57.587 E16.8797
G1 X64.25 Y56.892 E16.90906
G1 X65.565 Y56.23 E16.93844
G1 X66.917 Y55.59 E16.96829
G1 X68.229 Y55.009 E16.99693
G1 X69.596 Y54.441 E17.02647
G1 X70.972 Y53.909 E17.05591
G1 X72.408 Y53.392 E17.08637
G1 X73.75 Y52.948 E17.11458
